X: 11202
T: FINALE IN INKLE AND YARICO
%R: march
B: "Edinburgh Repository of Music" v.1 p.120 #2
F: http://digital.nls.uk/special-collections-of-printed-music/pageturner.cfm?id=87776133
Z: 2015 John Chambers <jc:trillian.mit.edu>
M: 2/4
L: 1/16
K: G
d2 |\
g2g2 {b}a2ga | b2ba g2gf | e2e2a2a2 | {g}f2ef d2ef |\
g2g2 {b}a2ga | b2(ba) g2(gf) | e2e2 fgaf | g4 "_fine"z2 H|]
[| d2 |\
a2a2 baga | b2ba g2ab | c'2c'2b2b2 | {b}agab a2d2 |\
a2a2 {b}a2ga | b2(ba) g2b2 | a2g2f2e2 | "_D.C."d4 |]

%%newpage
%%sep 2 1 500
%%sep 1 1 500

